32x32/apps/ind.ie.Gnomit.svg

<svg xmlns="http://www.w3.org/2000/svg" width="32" height="32" version="1">
 <rect style="fill:#f1502f" width="2" height="14" x="12" y="-21" transform="rotate(90)"/>
 <rect style="fill:#f1502f" width="2.045" height="13.636" x="22.98" y="-1.97" transform="rotate(45)"/>
 <path style="opacity:0.2;vector-effect:non-scaling-stroke" d="M 21,4 A 10,10 0 0 0 11,14 10,10 0 0 0 21,24 10,10 0 0 0 31,14 10,10 0 0 0 21,4 Z M 4.5,11 C 2.568323,11 1,12.56825 1,14.5 1,16.431677 2.568323,18 4.5,18 6.4317519,18 8,16.431677 8,14.5 8,12.56825 6.4317519,11 4.5,11 Z m 5,11 C 7.568323,22 6,23.56825 6,25.5 6,27.431677 7.568323,29 9.5,29 11.431752,29 13,27.431677 13,25.5 13,23.56825 11.431752,22 9.5,22 Z"/>
 <circle style="fill:#f1502f" cx="21" cy="13" r="10"/>
 <path style="fill:#f1502f" d="m 4.5000004,17 c -1.931677,0 -3.50000043,-1.568324 -3.50000043,-3.500001 0,-1.93175 1.56832343,-3.4999994 3.50000043,-3.4999994 C 6.4317523,9.9999996 8,11.568249 8,13.499999 8,15.431676 6.4317523,17 4.5000004,17 Z"/>
 <path style="fill:#f1502f" d="M 9.5000004,28 C 7.5683234,28 6,26.431676 6,24.499999 6,22.568249 7.5683234,21 9.5000004,21 11.431752,21 13,22.568249 13,24.499999 13,26.431676 11.431752,28 9.5000004,28 Z"/>
 <path style="opacity:0.2" d="m 21,7 c -3.863377,0 -7,3.136624 -7,7 0,3.863376 3.136623,7 7,7 3.863376,0 7,-3.136624 7,-7 0,-3.863376 -3.136624,-7 -7,-7 z m 2.300781,3 c 0.12943,0 0.258878,0.04989 0.359375,0.150391 l 1.189453,1.189453 c 0.200995,0.200994 0.200995,0.517757 0,0.71875 l -1,0.990234 -1.898437,-1.898437 0.990234,-1 C 23.041903,10.049893 23.171349,10 23.300781,10 Z m -1.71289,1.513672 1.898437,1.898437 L 18.900391,18 H 17 V 16.099609 Z M 4.5,13 C 3.67207,13 3,13.672136 3,14.5 3,15.327863 3.67207,16 4.5,16 5.327864,16 6,15.327863 6,14.5 6,13.672136 5.327864,13 4.5,13 Z m 5,11 C 8.67207,24 8,24.672136 8,25.5 8,26.327863 8.67207,27 9.5,27 10.327864,27 11,26.327863 11,25.5 11,24.672136 10.327864,24 9.5,24 Z"/>
 <path style="fill:#f4f4f7" d="M 4.500033,15 C 3.672103,15 3,14.327831 3,13.499968 3,12.672104 3.672103,12 4.500033,12 5.327897,12 6,12.672104 6,13.499968 6,14.327831 5.327897,15 4.500033,15 Z"/>
 <path style="fill:#f4f4f7" d="M 21 6 C 17.136623 6 14 9.1366243 14 13 C 14 16.863376 17.136623 20 21 20 C 24.863376 20 28 16.863376 28 13 C 28 9.1366243 24.863376 6 21 6 z M 23.300781 9 C 23.430211 9 23.559659 9.049892 23.660156 9.1503906 L 24.849609 10.339844 C 25.050604 10.540838 25.050604 10.857601 24.849609 11.058594 L 23.849609 12.048828 L 21.951172 10.150391 L 22.941406 9.1503906 C 23.041903 9.0498933 23.171349 9 23.300781 9 z M 21.587891 10.513672 L 23.486328 12.412109 L 18.900391 17 L 17 17 L 17 15.099609 L 21.587891 10.513672 z"/>
 <path style="fill:#f4f4f7" d="M 9.500033,26 C 8.672103,26 8,25.327831 8,24.499968 8,23.672104 8.672103,23 9.500033,23 10.327897,23 11,23.672104 11,24.499968 11,25.327831 10.327897,26 9.500033,26 Z"/>
 <path style="fill:#f4f4f7;opacity:0.2" d="M 21 3 A 10 10 0 0 0 11 13 A 10 10 0 0 0 11.021484 13.414062 A 10 10 0 0 1 21 4 A 10 10 0 0 1 30.978516 13.585938 A 10 10 0 0 0 31 13 A 10 10 0 0 0 21 3 z M 4.5 10 C 2.568323 10 1 11.56825 1 13.5 C 1 13.67126 1.0269658 13.835292 1.0507812 14 C 1.2955854 12.306887 2.7395831 11 4.5 11 C 6.2604852 11 7.7044251 12.306887 7.9492188 14 C 7.9730332 13.835292 8 13.67126 8 13.5 C 8 11.56825 6.4317519 10 4.5 10 z M 9.5 21 C 7.568323 21 6 22.56825 6 24.5 C 6 24.67126 6.0269658 24.835292 6.0507812 25 C 6.2955854 23.306887 7.7395831 22 9.5 22 C 11.260485 22 12.704425 23.306887 12.949219 25 C 12.973033 24.835292 13 24.67126 13 24.5 C 13 22.56825 11.431752 21 9.5 21 z"/>
</svg>

<svg xmlns="http://www.w3.org/2000/svg" width="32" height="32" version="1"><path style="fill:#f1502f" transform="rotate(90)" d="M12-21h2v14h-2z"/><path style="fill:#f1502f" transform="rotate(45)" d="M22.98-1.97h2.045v13.636H22.98z"/><path style="opacity:.2;vector-effect:non-scaling-stroke" d="M21 4a10 10 0 0 0-10 10 10 10 0 0 0 10 10 10 10 0 0 0 10-10A10 10 0 0 0 21 4zM4.5 11A3.502 3.502 0 0 0 1 14.5C1 16.432 2.568 18 4.5 18S8 16.432 8 14.5 6.432 11 4.5 11zm5 11A3.502 3.502 0 0 0 6 25.5C6 27.432 7.568 29 9.5 29s3.5-1.568 3.5-3.5S11.432 22 9.5 22z"/><circle style="fill:#f1502f" cx="21" cy="13" r="10"/><path style="fill:#f1502f" d="M4.5 17A3.502 3.502 0 0 1 1 13.5C1 11.568 2.568 10 4.5 10S8 11.568 8 13.5 6.432 17 4.5 17zM9.5 28A3.502 3.502 0 0 1 6 24.5C6 22.568 7.568 21 9.5 21s3.5 1.568 3.5 3.5S11.432 28 9.5 28z"/><path style="opacity:.2" d="M21 7c-3.863 0-7 3.137-7 7s3.137 7 7 7 7-3.137 7-7-3.137-7-7-7zm2.3 3c.13 0 .26.05.36.15l1.19 1.19a.504.504 0 0 1 0 .719l-1 .99-1.899-1.899.99-1c.1-.1.23-.15.36-.15zm-1.712 1.514 1.898 1.898L18.9 18H17v-1.9zM4.5 13a1.5 1.5 0 1 0 .001 3.001A1.5 1.5 0 0 0 4.5 13zm5 11a1.5 1.5 0 1 0 .001 3.001A1.5 1.5 0 0 0 9.5 24z"/><path style="fill:#f4f4f7" d="M4.5 15a1.5 1.5 0 1 1 .001-3.001A1.5 1.5 0 0 1 4.5 15zM21 6c-3.863 0-7 3.137-7 7s3.137 7 7 7 7-3.137 7-7-3.137-7-7-7zm2.3 3c.13 0 .26.05.36.15l1.19 1.19a.504.504 0 0 1 0 .719l-1 .99-1.899-1.899.99-1c.1-.1.23-.15.36-.15zm-1.712 1.514 1.898 1.898L18.9 17H17v-1.9l4.588-4.586zM9.5 26a1.5 1.5 0 1 1 .001-3.001A1.5 1.5 0 0 1 9.5 26z"/><path style="fill:#f4f4f7;opacity:.2" d="M21 3a10 10 0 0 0-10 10 10 10 0 0 0 .021.414A10 10 0 0 1 21 4a10 10 0 0 1 9.979 9.586A10 10 0 0 0 31 13 10 10 0 0 0 21 3zM4.5 10A3.502 3.502 0 0 0 1 13.5c0 .171.027.335.05.5a3.492 3.492 0 0 1 3.45-3 3.492 3.492 0 0 1 3.45 3c.023-.165.05-.329.05-.5C8 11.568 6.432 10 4.5 10zm5 11A3.502 3.502 0 0 0 6 24.5c0 .171.027.335.05.5a3.492 3.492 0 0 1 3.45-3 3.492 3.492 0 0 1 3.45 3c.023-.165.05-.329.05-.5 0-1.932-1.568-3.5-3.5-3.5z"/></svg>
